polaris-icons/icons/new-icons/WeightMinor.svg

<svg width="20" height="20" viewBox="0 0 20 20" fill="none" xmlns="http://www.w3.org/2000/svg">
<path fill-rule="evenodd" clip-rule="evenodd" d="M4.75 3.75C4.75 3.33579 4.41421 3 4 3C3.58579 3 3.25 3.33579 3.25 3.75C3.25 4.7165 4.0335 5.5 5 5.5H9.25V7H5.75C4.50736 7 3.5 8.00736 3.5 9.25V14.25C3.5 15.4926 4.50736 16.5 5.75 16.5H14.25C15.4926 16.5 16.5 15.4926 16.5 14.25V9.25C16.5 8.00736 15.4926 7 14.25 7H10.75V5.5H15C15.9665 5.5 16.75 4.7165 16.75 3.75C16.75 3.33579 16.4142 3 16 3C15.5858 3 15.25 3.33579 15.25 3.75C15.25 3.88807 15.1381 4 15 4H5C4.86193 4 4.75 3.88807 4.75 3.75ZM5 9.25C5 8.83579 5.33579 8.5 5.75 8.5H10C8.34315 8.5 7 9.84315 7 11.5C7 13.1569 8.34315 14.5 10 14.5C11.6569 14.5 13 13.1569 13 11.5C13 9.84315 11.6569 8.5 10 8.5H14.25C14.6642 8.5 15 8.83579 15 9.25V14.25C15 14.6642 14.6642 15 14.25 15H5.75C5.33579 15 5 14.6642 5 14.25V9.25ZM10 13C10.8284 13 11.5 12.3284 11.5 11.5C11.5 11.4129 11.4926 11.3274 11.4783 11.2444L10.4801 12.0762C10.1619 12.3414 9.689 12.2984 9.42382 11.9802C9.15865 11.6619 9.20164 11.189 9.51985 10.9239L10.5182 10.0919C10.3567 10.0325 10.1821 10 10 10C9.17157 10 8.5 10.6716 8.5 11.5C8.5 12.3284 9.17157 13 10 13Z" fill="#4A4A4A"/>
</svg>

<svg viewBox="0 0 20 20" xmlns="http://www.w3.org/2000/svg"><path fill-rule="evenodd" d="M4.75 3.75a.75.75 0 0 0-1.5 0c0 .966.784 1.75 1.75 1.75h4.25v1.5h-3.5a2.25 2.25 0 0 0-2.25 2.25v5a2.25 2.25 0 0 0 2.25 2.25h8.5a2.25 2.25 0 0 0 2.25-2.25v-5a2.25 2.25 0 0 0-2.25-2.25h-3.5v-1.5h4.25a1.75 1.75 0 0 0 1.75-1.75.75.75 0 0 0-1.5 0 .25.25 0 0 1-.25.25h-10a.25.25 0 0 1-.25-.25Zm.25 5.5a.75.75 0 0 1 .75-.75h4.25a3 3 0 1 0 0 6 3 3 0 0 0 0-6h4.25a.75.75 0 0 1 .75.75v5a.75.75 0 0 1-.75.75h-8.5a.75.75 0 0 1-.75-.75v-5Zm5 3.75a1.5 1.5 0 0 0 1.478-1.756l-.998.832a.75.75 0 1 1-.96-1.152l.998-.832a1.5 1.5 0 1 0-.518 2.908Z" fill="#5C5F62"/></svg>
